apps/app.mento.org/public/tokens/cREAL.svg

<svg width="40" height="40" viewBox="0 0 40 40" fill="none" xmlns="http://www.w3.org/2000/svg">
<g clip-path="url(#clip0_4004_57047)">
<path d="M20 40C31.0457 40 40 31.0457 40 20C40 8.95431 31.0457 0 20 0C8.95431 0 0 8.95431 0 20C0 31.0457 8.95431 40 20 40Z" fill="#23CC00"/>
<path d="M18.123 30.8003C13.6638 30.8003 10.019 27.1563 10.019 22.6963C10.019 19.5315 11.8414 16.7499 14.5262 15.4555V12.5307C10.3542 14.0171 7.33337 17.9971 7.33337 22.6963C7.33337 28.6427 12.1766 33.4859 18.123 33.4859C22.8222 33.4859 26.8022 30.4651 28.2886 26.2931H25.3638C24.0694 28.9787 21.2878 30.8003 18.123 30.8003Z" fill="#FFEF43"/>
<path d="M18.6702 16.9156H18.859C19.1902 16.9156 19.5686 16.8684 19.8518 16.8684L21.8374 22.826H24.4382L21.7902 16.2532C23.0198 15.5916 23.9182 14.078 23.9182 12.1868C23.9182 9.39724 22.1686 7.88364 18.8118 7.88364H16.3054V22.8252H18.6694V16.9148L18.6702 16.9156ZM18.6702 9.91724H19.0486C20.7982 9.91724 21.555 10.674 21.555 12.4236C21.555 14.1732 20.7982 14.93 19.0486 14.93H18.6702V9.91804V9.91724Z" fill="#FFEF43"/>
<path d="M29.7342 14.4097L30.207 10.2961C30.7742 10.4377 31.3894 10.7217 32.0038 11.1473V8.78327C31.531 8.49927 31.011 8.31047 30.491 8.21607L30.7278 6.51367H29.1198L28.9782 8.12167C26.7086 8.31047 25.2902 9.96567 25.2902 12.2353C25.2902 14.5049 26.6142 15.7345 28.0798 16.3017L27.607 20.3209C26.9454 20.1321 26.1886 19.8009 25.3374 19.2809V21.6921C25.999 22.0233 26.6614 22.3065 27.2758 22.4489L27.039 24.1985H28.647L28.8358 22.5905C31.1054 22.4489 32.6662 20.6993 32.6662 18.3825C32.6662 16.6329 31.815 15.1673 29.7342 14.4105V14.4097ZM28.4574 13.9841C27.7006 13.6057 27.3702 12.9913 27.3702 12.1401C27.3702 11.0049 27.8902 10.2961 28.9302 10.1545L28.4574 13.9849V13.9841ZM28.883 20.5097L29.3558 16.6793C30.1126 17.0577 30.5854 17.6249 30.5854 18.5233C30.5854 19.6105 30.0182 20.4145 28.883 20.5089V20.5097Z" fill="#FFEF43"/>
</g>
<defs>
<clipPath id="clip0_4004_57047">
<rect width="40" height="40" fill="white"/>
</clipPath>
</defs>
</svg>

<svg xmlns="http://www.w3.org/2000/svg" width="40" height="40" fill="none" viewBox="0 0 40 40"><g clip-path="url(#a)"><path fill="#23CC00" d="M20 40c11.046 0 20-8.954 20-20S31.046 0 20 0 0 8.954 0 20s8.954 20 20 20"/><path fill="#FFEF43" d="M18.123 30.8c-4.46 0-8.104-3.644-8.104-8.104 0-3.165 1.822-5.946 4.507-7.24V12.53c-4.172 1.486-7.193 5.466-7.193 10.165 0 5.947 4.844 10.79 10.79 10.79 4.7 0 8.68-3.02 10.166-7.193h-2.925c-1.295 2.686-4.076 4.507-7.241 4.507"/><path fill="#FFEF43" d="M18.67 16.916h.189c.331 0 .71-.048.993-.048l1.985 5.958h2.601l-2.648-6.573c1.23-.661 2.128-2.175 2.128-4.066 0-2.79-1.75-4.303-5.106-4.303h-2.507v14.941h2.364v-5.91zm0-6.999h.379c1.75 0 2.506.757 2.506 2.507s-.757 2.506-2.506 2.506h-.379zm11.064 4.492.473-4.114c.567.142 1.182.426 1.797.851V8.783a4.5 4.5 0 0 0-1.513-.567l.237-1.702H29.12l-.142 1.608c-2.27.188-3.688 1.844-3.688 4.113s1.324 3.5 2.79 4.067l-.473 4.019c-.662-.189-1.418-.52-2.27-1.04v2.411c.662.331 1.324.614 1.939.757l-.237 1.75h1.608l.189-1.609c2.27-.141 3.83-1.89 3.83-4.207 0-1.75-.851-3.216-2.932-3.972zm-1.277-.426c-.756-.378-1.087-.993-1.087-1.844 0-1.135.52-1.844 1.56-1.985zm.426 6.526.473-3.83c.757.378 1.23.945 1.23 1.843 0 1.087-.568 1.892-1.703 1.986"/></g><defs><clipPath id="a"><path fill="#fff" d="M0 0h40v40H0z"/></clipPath></defs></svg>
